X: 6739
T: Champion, The
R: hornpipe
M: 4/4
K: Gminor
de|f=efg f_edc|BABc dBFD|EGce DFBd|(3cdc (3BAG F2 de|
f=efg f_edc|BABc dBFD|EGce dcBA|B2 d2 B2:|
AB|cf=ef afef|dg^fg bgfg|dbca BgAf|Gg^fg =f2 AB|
cf=ef afef|dg^fg bgfg|dbca BgAf|feca b2:|

